icons/modern/japanese-bargain-button.svg

<svg width="32" height="32" viewBox="0 0 32 32" fill="none" xmlns="http://www.w3.org/2000/svg">
<g filter="url(#filter0_iii_18590_2588)">
<path d="M15.6023 30.0689C23.3343 30.0689 29.6023 23.8009 29.6023 16.0689C29.6023 8.33692 23.3343 2.06891 15.6023 2.06891C7.87031 2.06891 1.60229 8.33692 1.60229 16.0689C1.60229 23.8009 7.87031 30.0689 15.6023 30.0689Z" fill="url(#paint0_linear_18590_2588)"/>
</g>
<g filter="url(#filter1_f_18590_2588)">
<path d="M12.8951 6.875C12.8951 6.32272 13.3428 5.875 13.8951 5.875H21.8951C22.4474 5.875 22.8951 6.32272 22.8951 6.875V12.875C22.8951 13.4273 22.4474 13.875 21.8951 13.875H13.8951C13.3428 13.875 12.8951 13.4273 12.8951 12.875V6.875ZM20.7701 10.875H15.0201C14.9511 10.875 14.8951 10.931 14.8951 11V11.75C14.8951 11.819 14.9511 11.875 15.0201 11.875H20.7701C20.8391 11.875 20.8951 11.819 20.8951 11.75V11C20.8951 10.931 20.8391 10.875 20.7701 10.875ZM14.8951 8.75C14.8951 8.81904 14.9511 8.875 15.0201 8.875H20.7701C20.8391 8.875 20.8951 8.81904 20.8951 8.75V8C20.8951 7.93096 20.8391 7.875 20.7701 7.875H15.0201C14.9511 7.875 14.8951 7.93096 14.8951 8V8.75Z" fill="#E31F4E"/>
<path d="M6.60222 12.1685C6.2117 11.7779 6.2117 11.1448 6.60222 10.7543L10.1378 7.21872C10.5283 6.8282 11.1614 6.8282 11.552 7.21872C11.9425 7.60925 11.9425 8.24241 11.552 8.63294L8.01643 12.1685C7.62591 12.559 6.99274 12.559 6.60222 12.1685Z" fill="#E31F4E"/>
<path d="M8.89511 16.2166C8.89511 16.1052 8.76047 16.0494 8.68172 16.1282L8.01643 16.7935C7.62591 17.184 6.99274 17.184 6.60222 16.7935C6.2117 16.4029 6.2117 15.7698 6.60222 15.3793L10.1378 11.8437C10.5283 11.4532 11.1614 11.4532 11.552 11.8437C11.9425 12.2342 11.9425 12.8674 11.552 13.2579L10.9317 13.8782C10.9083 13.9016 10.8951 13.9334 10.8951 13.9666V24.875C10.8951 25.4273 10.4474 25.875 9.89511 25.875C9.34283 25.875 8.89511 25.4273 8.89511 24.875V16.2166Z" fill="#E31F4E"/>
<path d="M15.5945 21.129C15.204 20.7385 14.5708 20.7385 14.1803 21.129C13.7898 21.5195 13.7898 22.1527 14.1803 22.5432L15.5945 23.9574C15.9851 24.3479 16.6182 24.3479 17.0087 23.9574C17.3993 23.5669 17.3993 22.9337 17.0087 22.5432L15.5945 21.129Z" fill="#E31F4E"/>
<path d="M12.8951 14.875C12.3428 14.875 11.8951 15.3227 11.8951 15.875C11.8951 16.4273 12.3428 16.875 12.8951 16.875H19.7701C19.8391 16.875 19.8951 16.931 19.8951 17V17.75C19.8951 17.819 19.8391 17.875 19.7701 17.875H12.8951C12.3428 17.875 11.8951 18.3227 11.8951 18.875C11.8951 19.4273 12.3428 19.875 12.8951 19.875H19.7701C19.8391 19.875 19.8951 19.931 19.8951 20V23.75C19.8951 23.819 19.8391 23.875 19.7701 23.875H18.8951C18.3428 23.875 17.8951 24.3227 17.8951 24.875C17.8951 25.4273 18.3428 25.875 18.8951 25.875H20.8951C21.4474 25.875 21.8951 25.4273 21.8951 24.875V20C21.8951 19.931 21.9511 19.875 22.0201 19.875H23.8951C24.4474 19.875 24.8951 19.4273 24.8951 18.875C24.8951 18.3227 24.4474 17.875 23.8951 17.875H22.0201C21.9511 17.875 21.8951 17.819 21.8951 17.75V17C21.8951 16.931 21.9511 16.875 22.0201 16.875H23.8951C24.4474 16.875 24.8951 16.4273 24.8951 15.875C24.8951 15.3227 24.4474 14.875 23.8951 14.875H12.8951Z" fill="#E31F4E"/>
</g>
<g filter="url(#filter2_ii_18590_2588)">
<path d="M12.8951 6.875C12.8951 6.32272 13.3428 5.875 13.8951 5.875H21.8951C22.4474 5.875 22.8951 6.32272 22.8951 6.875V12.875C22.8951 13.4273 22.4474 13.875 21.8951 13.875H13.8951C13.3428 13.875 12.8951 13.4273 12.8951 12.875V6.875ZM20.7701 10.875H15.0201C14.9511 10.875 14.8951 10.931 14.8951 11V11.75C14.8951 11.819 14.9511 11.875 15.0201 11.875H20.7701C20.8391 11.875 20.8951 11.819 20.8951 11.75V11C20.8951 10.931 20.8391 10.875 20.7701 10.875ZM14.8951 8.75C14.8951 8.81904 14.9511 8.875 15.0201 8.875H20.7701C20.8391 8.875 20.8951 8.81904 20.8951 8.75V8C20.8951 7.93096 20.8391 7.875 20.7701 7.875H15.0201C14.9511 7.875 14.8951 7.93096 14.8951 8V8.75Z" fill="#FCF2FF"/>
<path d="M6.60222 12.1685C6.2117 11.7779 6.2117 11.1448 6.60222 10.7543L10.1378 7.21872C10.5283 6.8282 11.1614 6.8282 11.552 7.21872C11.9425 7.60925 11.9425 8.24241 11.552 8.63294L8.01643 12.1685C7.62591 12.559 6.99274 12.559 6.60222 12.1685Z" fill="#FCF2FF"/>
<path d="M8.89511 16.2166C8.89511 16.1052 8.76047 16.0494 8.68172 16.1282L8.01643 16.7935C7.62591 17.184 6.99274 17.184 6.60222 16.7935C6.2117 16.4029 6.2117 15.7698 6.60222 15.3793L10.1378 11.8437C10.5283 11.4532 11.1614 11.4532 11.552 11.8437C11.9425 12.2342 11.9425 12.8674 11.552 13.2579L10.9317 13.8782C10.9083 13.9016 10.8951 13.9334 10.8951 13.9666V24.875C10.8951 25.4273 10.4474 25.875 9.89511 25.875C9.34283 25.875 8.89511 25.4273 8.89511 24.875V16.2166Z" fill="#FCF2FF"/>
<path d="M15.5945 21.129C15.204 20.7385 14.5708 20.7385 14.1803 21.129C13.7898 21.5195 13.7898 22.1527 14.1803 22.5432L15.5945 23.9574C15.9851 24.3479 16.6182 24.3479 17.0087 23.9574C17.3993 23.5669 17.3993 22.9337 17.0087 22.5432L15.5945 21.129Z" fill="#FCF2FF"/>
<path d="M12.8951 14.875C12.3428 14.875 11.8951 15.3227 11.8951 15.875C11.8951 16.4273 12.3428 16.875 12.8951 16.875H19.7701C19.8391 16.875 19.8951 16.931 19.8951 17V17.75C19.8951 17.819 19.8391 17.875 19.7701 17.875H12.8951C12.3428 17.875 11.8951 18.3227 11.8951 18.875C11.8951 19.4273 12.3428 19.875 12.8951 19.875H19.7701C19.8391 19.875 19.8951 19.931 19.8951 20V23.75C19.8951 23.819 19.8391 23.875 19.7701 23.875H18.8951C18.3428 23.875 17.8951 24.3227 17.8951 24.875C17.8951 25.4273 18.3428 25.875 18.8951 25.875H20.8951C21.4474 25.875 21.8951 25.4273 21.8951 24.875V20C21.8951 19.931 21.9511 19.875 22.0201 19.875H23.8951C24.4474 19.875 24.8951 19.4273 24.8951 18.875C24.8951 18.3227 24.4474 17.875 23.8951 17.875H22.0201C21.9511 17.875 21.8951 17.819 21.8951 17.75V17C21.8951 16.931 21.9511 16.875 22.0201 16.875H23.8951C24.4474 16.875 24.8951 16.4273 24.8951 15.875C24.8951 15.3227 24.4474 14.875 23.8951 14.875H12.8951Z" fill="#FCF2FF"/>
</g>
<defs>
<filter id="filter0_iii_18590_2588" x="-0.147705" y="0.568909" width="31.25" height="31.25" filterUnits="userSpaceOnUse" color-interpolation-filters="sRGB">
<feFlood flood-opacity="0" result="BackgroundImageFix"/>
<feBlend mode="normal" in="SourceGraphic" in2="BackgroundImageFix" result="shape"/>
<feColorMatrix in="SourceAlpha" type="matrix" values="0 0 0 0 0 0 0 0 0 0 0 0 0 0 0 0 0 0 127 0" result="hardAlpha"/>
<feOffset dx="-1.75" dy="1.75"/>
<feGaussianBlur stdDeviation="1"/>
<feComposite in2="hardAlpha" operator="arithmetic" k2="-1" k3="1"/>
<feColorMatrix type="matrix" values="0 0 0 0 1 0 0 0 0 0.466667 0 0 0 0 0.670588 0 0 0 1 0"/>
<feBlend mode="normal" in2="shape" result="effect1_innerShadow_18590_2588"/>
<feColorMatrix in="SourceAlpha" type="matrix" values="0 0 0 0 0 0 0 0 0 0 0 0 0 0 0 0 0 0 127 0" result="hardAlpha"/>
<feOffset dx="1.5"/>
<feGaussianBlur stdDeviation="1.5"/>
<feComposite in2="hardAlpha" operator="arithmetic" k2="-1" k3="1"/>
<feColorMatrix type="matrix" values="0 0 0 0 0.878431 0 0 0 0 0.156863 0 0 0 0 0.282353 0 0 0 1 0"/>
<feBlend mode="normal" in2="effect1_innerShadow_18590_2588" result="effect2_innerShadow_18590_2588"/>
<feColorMatrix in="SourceAlpha" type="matrix" values="0 0 0 0 0 0 0 0 0 0 0 0 0 0 0 0 0 0 127 0" result="hardAlpha"/>
<feOffset dy="-1.5"/>
<feGaussianBlur stdDeviation="1.5"/>
<feComposite in2="hardAlpha" operator="arithmetic" k2="-1" k3="1"/>
<feColorMatrix type="matrix" values="0 0 0 0 0.882353 0 0 0 0 0.117647 0 0 0 0 0.321569 0 0 0 1 0"/>
<feBlend mode="normal" in2="effect2_innerShadow_18590_2588" result="effect3_innerShadow_18590_2588"/>
</filter>
<filter id="filter1_f_18590_2588" x="5.30933" y="4.875" width="20.5858" height="22" filterUnits="userSpaceOnUse" color-interpolation-filters="sRGB">
<feFlood flood-opacity="0" result="BackgroundImageFix"/>
<feBlend mode="normal" in="SourceGraphic" in2="BackgroundImageFix" result="shape"/>
<feGaussianBlur stdDeviation="0.5" result="effect1_foregroundBlur_18590_2588"/>
</filter>
<filter id="filter2_ii_18590_2588" x="5.90933" y="5.475" width="19.3858" height="20.8" filterUnits="userSpaceOnUse" color-interpolation-filters="sRGB">
<feFlood flood-opacity="0" result="BackgroundImageFix"/>
<feBlend mode="normal" in="SourceGraphic" in2="BackgroundImageFix" result="shape"/>
<feColorMatrix in="SourceAlpha" type="matrix" values="0 0 0 0 0 0 0 0 0 0 0 0 0 0 0 0 0 0 127 0" result="hardAlpha"/>
<feOffset dx="-0.4" dy="0.4"/>
<feGaussianBlur stdDeviation="0.375"/>
<feComposite in2="hardAlpha" operator="arithmetic" k2="-1" k3="1"/>
<feColorMatrix type="matrix" values="0 0 0 0 0.913725 0 0 0 0 0.886275 0 0 0 0 0.968627 0 0 0 1 0"/>
<feBlend mode="normal" in2="shape" result="effect1_innerShadow_18590_2588"/>
<feColorMatrix in="SourceAlpha" type="matrix" values="0 0 0 0 0 0 0 0 0 0 0 0 0 0 0 0 0 0 127 0" result="hardAlpha"/>
<feOffset dx="0.4" dy="-0.4"/>
<feGaussianBlur stdDeviation="0.2"/>
<feComposite in2="hardAlpha" operator="arithmetic" k2="-1" k3="1"/>
<feColorMatrix type="matrix" values="0 0 0 0 1 0 0 0 0 0.988235 0 0 0 0 1 0 0 0 1 0"/>
<feBlend mode="normal" in2="effect1_innerShadow_18590_2588" result="effect2_innerShadow_18590_2588"/>
</filter>
<linearGradient id="paint0_linear_18590_2588" x1="15.6023" y1="2.06891" x2="15.6023" y2="30.0689" gradientUnits="userSpaceOnUse">
<stop stop-color="#FF5697"/>
<stop offset="1" stop-color="#FA4C62"/>
</linearGradient>
</defs>
</svg>

<svg width="32" height="32" fill="none" xmlns="http://www.w3.org/2000/svg"><g filter="url(#a)"><path d="M15.602 30.069c7.732 0 14-6.268 14-14s-6.268-14-14-14-14 6.268-14 14 6.268 14 14 14Z" fill="url(#b)"/></g><g filter="url(#c)" fill="#E31F4E"><path d="M12.895 6.875a1 1 0 0 1 1-1h8a1 1 0 0 1 1 1v6a1 1 0 0 1-1 1h-8a1 1 0 0 1-1-1v-6Zm7.875 4h-5.75a.125.125 0 0 0-.125.125v.75c0 .069.056.125.125.125h5.75a.125.125 0 0 0 .125-.125V11a.125.125 0 0 0-.125-.125ZM14.895 8.75c0 .069.056.125.125.125h5.75a.125.125 0 0 0 .125-.125V8a.125.125 0 0 0-.125-.125h-5.75a.125.125 0 0 0-.125.125v.75ZM6.602 12.168a1 1 0 0 1 0-1.414l3.536-3.535a1 1 0 1 1 1.414 1.414l-3.536 3.536a1 1 0 0 1-1.414 0ZM8.895 16.217a.125.125 0 0 0-.213-.089l-.666.666a1 1 0 0 1-1.414-1.415l3.536-3.535a1 1 0 0 1 1.414 1.414l-.62.62a.125.125 0 0 0-.037.089v10.908a1 1 0 1 1-2 0v-8.658ZM15.595 21.129a1 1 0 0 0-1.415 1.414l1.415 1.414a1 1 0 0 0 1.414-1.414l-1.415-1.414Z"/><path d="M12.895 14.875a1 1 0 1 0 0 2h6.875c.07 0 .125.056.125.125v.75a.125.125 0 0 1-.125.125h-6.875a1 1 0 1 0 0 2h6.875c.07 0 .125.056.125.125v3.75a.125.125 0 0 1-.125.125h-.875a1 1 0 1 0 0 2h2a1 1 0 0 0 1-1V20c0-.069.056-.125.125-.125h1.875a1 1 0 1 0 0-2H22.02a.125.125 0 0 1-.125-.125V17c0-.069.056-.125.125-.125h1.875a1 1 0 1 0 0-2h-11Z"/></g><g filter="url(#d)" fill="#FCF2FF"><path d="M12.895 6.875a1 1 0 0 1 1-1h8a1 1 0 0 1 1 1v6a1 1 0 0 1-1 1h-8a1 1 0 0 1-1-1v-6Zm7.875 4h-5.75a.125.125 0 0 0-.125.125v.75c0 .069.056.125.125.125h5.75a.125.125 0 0 0 .125-.125V11a.125.125 0 0 0-.125-.125ZM14.895 8.75c0 .069.056.125.125.125h5.75a.125.125 0 0 0 .125-.125V8a.125.125 0 0 0-.125-.125h-5.75a.125.125 0 0 0-.125.125v.75ZM6.602 12.168a1 1 0 0 1 0-1.414l3.536-3.535a1 1 0 1 1 1.414 1.414l-3.536 3.536a1 1 0 0 1-1.414 0ZM8.895 16.217a.125.125 0 0 0-.213-.089l-.666.666a1 1 0 0 1-1.414-1.415l3.536-3.535a1 1 0 0 1 1.414 1.414l-.62.62a.125.125 0 0 0-.037.089v10.908a1 1 0 1 1-2 0v-8.658ZM15.595 21.129a1 1 0 0 0-1.415 1.414l1.415 1.414a1 1 0 0 0 1.414-1.414l-1.415-1.414Z"/><path d="M12.895 14.875a1 1 0 1 0 0 2h6.875c.07 0 .125.056.125.125v.75a.125.125 0 0 1-.125.125h-6.875a1 1 0 1 0 0 2h6.875c.07 0 .125.056.125.125v3.75a.125.125 0 0 1-.125.125h-.875a1 1 0 1 0 0 2h2a1 1 0 0 0 1-1V20c0-.069.056-.125.125-.125h1.875a1 1 0 1 0 0-2H22.02a.125.125 0 0 1-.125-.125V17c0-.069.056-.125.125-.125h1.875a1 1 0 1 0 0-2h-11Z"/></g><defs><filter id="a" x="-.148" y=".569" width="31.25" height="31.25" filterUnits="userSpaceOnUse" color-interpolation-filters="sRGB"><feFlood flood-opacity="0" result="BackgroundImageFix"/><feBlend in="SourceGraphic" in2="BackgroundImageFix" result="shape"/><feColorMatrix in="SourceAlpha" values="0 0 0 0 0 0 0 0 0 0 0 0 0 0 0 0 0 0 127 0" result="hardAlpha"/><feOffset dx="-1.75" dy="1.75"/><feGaussianBlur stdDeviation="1"/><feComposite in2="hardAlpha" operator="arithmetic" k2="-1" k3="1"/><feColorMatrix values="0 0 0 0 1 0 0 0 0 0.466667 0 0 0 0 0.670588 0 0 0 1 0"/><feBlend in2="shape" result="effect1_innerShadow_18590_2588"/><feColorMatrix in="SourceAlpha" values="0 0 0 0 0 0 0 0 0 0 0 0 0 0 0 0 0 0 127 0" result="hardAlpha"/><feOffset dx="1.5"/><feGaussianBlur stdDeviation="1.5"/><feComposite in2="hardAlpha" operator="arithmetic" k2="-1" k3="1"/><feColorMatrix values="0 0 0 0 0.878431 0 0 0 0 0.156863 0 0 0 0 0.282353 0 0 0 1 0"/><feBlend in2="effect1_innerShadow_18590_2588" result="effect2_innerShadow_18590_2588"/><feColorMatrix in="SourceAlpha" values="0 0 0 0 0 0 0 0 0 0 0 0 0 0 0 0 0 0 127 0" result="hardAlpha"/><feOffset dy="-1.5"/><feGaussianBlur stdDeviation="1.5"/><feComposite in2="hardAlpha" operator="arithmetic" k2="-1" k3="1"/><feColorMatrix values="0 0 0 0 0.882353 0 0 0 0 0.117647 0 0 0 0 0.321569 0 0 0 1 0"/><feBlend in2="effect2_innerShadow_18590_2588" result="effect3_innerShadow_18590_2588"/></filter><filter id="c" x="5.309" y="4.875" width="20.586" height="22" filterUnits="userSpaceOnUse" color-interpolation-filters="sRGB"><feFlood flood-opacity="0" result="BackgroundImageFix"/><feBlend in="SourceGraphic" in2="BackgroundImageFix" result="shape"/><feGaussianBlur stdDeviation=".5" result="effect1_foregroundBlur_18590_2588"/></filter><filter id="d" x="5.909" y="5.475" width="19.386" height="20.8" filterUnits="userSpaceOnUse" color-interpolation-filters="sRGB"><feFlood flood-opacity="0" result="BackgroundImageFix"/><feBlend in="SourceGraphic" in2="BackgroundImageFix" result="shape"/><feColorMatrix in="SourceAlpha" values="0 0 0 0 0 0 0 0 0 0 0 0 0 0 0 0 0 0 127 0" result="hardAlpha"/><feOffset dx="-.4" dy=".4"/><feGaussianBlur stdDeviation=".375"/><feComposite in2="hardAlpha" operator="arithmetic" k2="-1" k3="1"/><feColorMatrix values="0 0 0 0 0.913725 0 0 0 0 0.886275 0 0 0 0 0.968627 0 0 0 1 0"/><feBlend in2="shape" result="effect1_innerShadow_18590_2588"/><feColorMatrix in="SourceAlpha" values="0 0 0 0 0 0 0 0 0 0 0 0 0 0 0 0 0 0 127 0" result="hardAlpha"/><feOffset dx=".4" dy="-.4"/><feGaussianBlur stdDeviation=".2"/><feComposite in2="hardAlpha" operator="arithmetic" k2="-1" k3="1"/><feColorMatrix values="0 0 0 0 1 0 0 0 0 0.988235 0 0 0 0 1 0 0 0 1 0"/><feBlend in2="effect1_innerShadow_18590_2588" result="effect2_innerShadow_18590_2588"/></filter><linearGradient id="b" x1="15.602" y1="2.069" x2="15.602" y2="30.069" gradientUnits="userSpaceOnUse"><stop stop-color="#FF5697"/><stop offset="1" stop-color="#FA4C62"/></linearGradient></defs></svg>
